app/assets/images/mfa-options/webauthn_platform.svg

<svg width="42" height="48" viewBox="0 0 42 48" fill="none" xmlns="http://www.w3.org/2000/svg"><path d="M6.11916e-08 26.9661C0.115526 21.2513 2.3066 16.1017 6.72789 11.9579C9.77324 9.07656 13.6503 7.21947 17.8125 6.64847C23.5594 5.81424 28.8207 7.07923 33.4906 10.5155C37.7768 13.6692 40.4163 17.9222 41.5187 23.1088C41.8809 24.8084 42.1374 26.5373 41.9201 28.2681C41.5285 31.3867 39.8112 33.597 36.927 34.8386C32.259 36.8482 26.7823 33.9518 25.7896 28.9913C25.6764 28.4207 25.6109 27.8418 25.5938 27.2604C25.5233 24.8845 23.7297 22.9334 21.4603 22.7989C18.9325 22.6469 16.8217 24.2705 16.5299 26.7205C16.3341 28.3403 16.5985 29.9561 17.0332 31.529C18.6172 37.2614 22.175 41.2454 27.732 43.4401C28.5054 43.7461 29.13 44.1476 29.2221 45.0501C29.2668 45.3572 29.2297 45.6706 29.1147 45.959C28.9997 46.2474 28.8106 46.5007 28.5665 46.6936C28.3223 46.8865 28.0316 47.0123 27.7233 47.0584C27.4151 47.1045 27.1001 47.0693 26.8097 46.9563C24.2193 46.0558 21.8369 44.6467 19.8038 42.8125C16.8677 40.2101 14.736 36.83 13.6575 33.0669C12.9702 30.687 12.5727 28.2584 12.9721 25.7772C13.5184 22.3837 16.4966 19.6686 19.9174 19.1989C24.0019 18.6356 28.1862 21.3546 29.0458 25.6797C29.1868 26.3911 29.1849 27.1279 29.2788 27.851C29.5921 30.2718 31.4582 31.8857 33.9038 31.837C35.0657 31.8105 36.1723 31.3379 36.9923 30.5181C37.8123 29.6982 38.2821 28.5945 38.3035 27.4378C38.3389 23.6551 37.1247 19.9656 34.8478 16.937C32.5708 13.9083 29.3573 11.7083 25.7015 10.6754C21.6953 9.55656 17.7243 9.7924 13.9277 11.5193C8.79756 13.8583 5.5276 17.7994 4.13738 23.2374C3.41139 26.0783 3.45192 29.0596 4.25486 31.8799C4.42717 32.4958 4.46829 33.102 4.07668 33.6516C3.89821 33.9359 3.64098 34.1628 3.33596 34.3049C3.03094 34.4471 2.69115 34.4984 2.3575 34.4527C1.98651 34.4225 1.63543 34.2731 1.35715 34.027C1.07886 33.7809 0.888437 33.4515 0.814553 33.0883C0.273654 31.0921 -0.000228804 29.0336 6.11916e-08 26.9661Z" fill="#0071BB"/><path d="M6.40857 27.6779C6.40857 22.1307 8.78565 17.5074 14.0293 14.5486C16.8384 12.9352 20.1344 12.3745 23.3223 12.9679C29.0006 13.9814 32.8228 17.2403 34.8259 22.6063C35.357 24.0726 35.6183 25.6222 35.5973 27.1809C35.5973 28.2158 34.9414 28.9663 33.9937 29.054C32.9657 29.1495 32.1727 28.5491 32.0043 27.4947C31.8594 26.5864 31.8575 25.6488 31.644 24.7659C31.3193 23.2969 30.68 21.9149 29.7696 20.7143C28.8592 19.5138 27.6993 18.5229 26.369 17.8095C24.6557 16.8532 22.7149 16.3751 20.7513 16.4256C18.3345 16.4303 15.9961 17.2802 14.1449 18.8269C11.2078 21.2692 9.91741 24.4092 10.0878 28.2217C10.2646 32.1455 11.3954 35.968 13.3832 39.3609C13.5817 39.6797 13.674 40.0528 13.6468 40.4269C13.6197 40.801 13.4744 41.157 13.2319 41.4441C12.9893 41.7311 12.6619 41.9346 12.2962 42.0253C11.9306 42.116 11.5456 42.0895 11.196 41.9493C10.7849 41.7648 10.4381 41.4629 10.1994 41.082C8.34456 37.9115 7.13747 34.4075 6.64745 30.7711C6.52997 29.8745 6.50843 28.9624 6.40857 27.6779Z" fill="#0071BB"/><path d="M20.8359 7.58679e-08C25.0012 0.045923 29.1062 0.996482 32.8642 2.78529C35.3156 3.96424 37.574 5.50521 39.5627 7.35599C40.4654 8.19021 40.5594 9.29146 39.7918 10.0965C39.132 10.7884 38.1686 10.8566 37.3736 10.2309C36.7373 9.72807 36.144 9.16867 35.5076 8.67164C32.538 6.29256 29.0032 4.71446 25.2435 4.08925C17.8166 2.84377 11.1905 4.67399 5.40834 9.49807C5.0037 9.86185 4.54032 10.1551 4.0377 10.3654C3.35042 10.6208 2.55349 10.268 2.15992 9.68324C1.9402 9.36636 1.82647 8.98859 1.83491 8.60365C1.84335 8.21872 1.97352 7.84624 2.20692 7.5392C2.42662 7.2786 2.66978 7.03851 2.93335 6.82193C6.91604 3.42071 11.4764 1.23964 16.6711 0.434656C18.0456 0.218304 19.4535 0.138388 20.8359 7.58679e-08Z" fill="#0071BB"/><path d="M33.7333 41.822C30.6666 41.8079 27.6815 40.8369 25.1982 39.0456C22.7149 37.2544 20.8583 34.7332 19.8898 31.8367C19.4252 30.436 19.1789 28.9728 19.1594 27.4979C19.1379 25.9796 20.5046 25.0732 21.8165 25.7184C22.076 25.8389 22.2994 26.0247 22.4645 26.2575C22.6297 26.4903 22.731 26.762 22.7583 27.0457C22.8602 27.8624 22.8739 28.6986 23.054 29.4977C23.9332 33.396 26.2339 36.0897 29.9992 37.5008C31.6355 38.1104 33.3951 38.3189 35.1293 38.109C35.3642 38.0799 35.6024 38.0977 35.8303 38.1612C36.0581 38.2247 36.271 38.3327 36.4565 38.4789C36.642 38.6251 36.7964 38.8066 36.9108 39.0128C37.0252 39.219 37.0972 39.4458 37.1227 39.68C37.2264 40.7871 36.5352 41.6115 35.4348 41.6934L33.7333 41.822Z" fill="#0071BB"/></svg>

<svg width="42" height="48" viewBox="0 0 42 48" fill="none" xmlns="http://www.w3.org/2000/svg"><path d="M0 26.966c.116-5.715 2.307-10.864 6.728-15.008a20.103 20.103 0 0 1 11.085-5.31c5.746-.834 11.008.431 15.678 3.867 4.286 3.154 6.925 7.407 8.028 12.594.362 1.7.618 3.428.401 5.16-.392 3.118-2.109 5.328-4.993 6.57-4.668 2.01-10.145-.887-11.137-5.848-.114-.57-.18-1.15-.196-1.73-.07-2.377-1.864-4.328-4.134-4.462-2.527-.152-4.638 1.471-4.93 3.922-.196 1.62.069 3.235.503 4.808 1.584 5.732 5.142 9.716 10.699 11.911.773.306 1.398.708 1.49 1.61a1.767 1.767 0 0 1-.655 1.644 1.786 1.786 0 0 1-1.757.262c-2.59-.9-4.973-2.31-7.006-4.144a20.613 20.613 0 0 1-6.146-9.745c-.688-2.38-1.085-4.809-.686-7.29.546-3.393 3.525-6.108 6.945-6.578 4.085-.563 8.27 2.156 9.129 6.48.14.712.139 1.449.233 2.172.313 2.42 2.18 4.035 4.625 3.986a4.514 4.514 0 0 0 3.088-1.319 4.473 4.473 0 0 0 1.312-3.08 17.205 17.205 0 0 0-3.456-10.501 17.338 17.338 0 0 0-9.146-6.262c-4.007-1.118-7.978-.883-11.774.844-5.13 2.34-8.4 6.28-9.79 11.718a16.573 16.573 0 0 0 .117 8.643c.172.616.213 1.222-.178 1.772a1.744 1.744 0 0 1-1.72.8 1.72 1.72 0 0 1-1-.425 1.708 1.708 0 0 1-.542-.939A23.398 23.398 0 0 1 0 26.966Z" fill="#0071BB"/><path d="M6.409 27.678c0-5.547 2.377-10.17 7.62-13.13a13.648 13.648 0 0 1 9.293-1.58c5.679 1.013 9.5 4.272 11.504 9.638a12.92 12.92 0 0 1 .771 4.575c0 1.035-.656 1.785-1.603 1.873-1.028.096-1.821-.505-1.99-1.56-.145-.908-.146-1.845-.36-2.728a10.432 10.432 0 0 0-1.874-4.052c-.91-1.2-2.07-2.191-3.401-2.904a10.95 10.95 0 0 0-5.618-1.384 10.336 10.336 0 0 0-6.606 2.4c-2.937 2.443-4.228 5.583-4.057 9.396a24.188 24.188 0 0 0 3.295 11.139 1.773 1.773 0 0 1-.151 2.083 1.789 1.789 0 0 1-2.036.505 2.275 2.275 0 0 1-.997-.867 27.76 27.76 0 0 1-3.552-10.31c-.117-.897-.139-1.81-.238-3.094ZM20.836 0c4.165.046 8.27.996 12.028 2.785a27.025 27.025 0 0 1 6.699 4.571c.902.834.996 1.935.229 2.74-.66.692-1.623.76-2.418.135-.637-.503-1.23-1.062-1.866-1.56A22.255 22.255 0 0 0 25.243 4.09c-7.426-1.245-14.052.585-19.835 5.41a4.85 4.85 0 0 1-1.37.866c-.688.256-1.485-.097-1.878-.682a1.824 1.824 0 0 1 .047-2.144c.22-.26.463-.5.726-.717C6.916 3.42 11.476 1.24 16.671.435 18.046.218 19.453.138 20.836 0Z" fill="#0071BB"/><path d="M33.733 41.822a14.706 14.706 0 0 1-8.535-2.776 14.599 14.599 0 0 1-5.308-7.21 14.347 14.347 0 0 1-.73-4.338c-.022-1.518 1.345-2.425 2.657-1.78a1.642 1.642 0 0 1 .941 1.328c.102.816.116 1.653.296 2.452.88 3.898 3.18 6.592 6.945 8.003 1.637.61 3.396.818 5.13.608a1.791 1.791 0 0 1 1.782.904c.114.206.186.433.212.667.103 1.107-.588 1.931-1.688 2.013l-1.702.129Z" fill="#0071BB"/></svg>
